X:1
T:The Harvest Is Passing
T:The Harvest Is Passing
T:Philip Paul Bliss, 1874
T:John Bayley Hague, 1842
T:Public Domain Courtesy of the Cyber Hymnal™
T:Public Domain Courtesy of the Cyber Hymnal™
C:Philip Paul Bliss, 1874
Z:Public Domain
Z:Courtesy of the Cyber Hymnal™
%%score ( 1 2 ) ( 3 4 )
L:1/8
Q:1/4=90
M:2/4
K:G
V:1 treble 
V:2 treble 
V:3 bass 
V:4 bass 
V:1
 [B,D] | [DB]2 [CA][B,G] | [CE]2 [B,D]D | [^CG]2 [CF][CG] | [DB] [DA]2 D | [DB]2 [CA][B,G] | %6
w: 1.~Hark,|sin- ner, while|God from on|high doth en-|treat thee, And|warn- ings with|
w: 2.~How|oft of thy|dan- ger and|guilt He hath|told thee! How|oft still the|
w: 3.~Des-|pised and re-|ject- ed, at|length He may|leave thee: What|an- guish and|
w: 4.~The|Sav- ior will|call thee in|judg- ment be-|fore Him; Oh,|bow to His|
 [Ec]2 [DB][DG] | [EA]2 [DG][DF] | [DG]3 [B,D] | [DB]2 [CA][B,G] | [CE]2 [B,D]D | [^CG]2 [CF][CG] | %12
w: ac- cents of|mer- cy doth|blend; Give|ear to His|voice, lest in|judg- ment He|
w: mes- sage of|mer- cy doth|send! Haste,|haste, while He|waits in His|arms to en-|
w: hor- ror thy|bo- som will|rend! Then|haste thee, O|sin- ner, while|He will re-|
w: scep- ter, and|make Him thy|friend; Now|yield Him thy|heart, and make|haste to a-|
 [DB] [DA]2 D | [DB]2 [CA][B,G] | [Ec]2 [DB][DG] | [EA]2 [DG][DF] | [DG]3 ||"^Refrain" [DG] | %18
w: meet thee; “The|har- vest is|pass- ing, the|sum- mer will|end.”||
w: fold thee: “The|har- vest is|pass- ing, the|sum- mer will|end.”|The|
w: ceive thee: “The|har- vest is|pass- ing, the|sum- mer will|end.”||
w: dore Him: “The|har- vest is|pass- ing, the|sum- mer will|end.”||
 [DA]2 [DA][DA] | [DB][DB] z [DB] | [Ec]2 [Ed][Ec] | [DB]2 z!pp! [DG] | [DA]2 [DA][DA] | %23
w: |||||
w: har- vest is|pass- ing, the|sum- mer will|end; The|har- vest is|
w: |||||
w: |||||
 [DB][DB] z [DG] | [EA]2 [DG][DF] | [DG]3 |] %26
w: |||
w: pass- ing, the|sum- mer will|end.|
w: |||
w: |||
V:2
 x | x4 | x3 D | x4 | x3 D | x4 | x4 | x4 | x4 | x4 | x3 D | x4 | x3 D | x4 | x4 | x4 | x3 || x | %18
 x4 | x4 | x4 | x4 | x4 | x4 | x4 | x3 |] %26
V:3
 G, | G,2 G,G, | G,2 G,[F,A,] | [E,A,]2 [E,A,][E,A,] | [E,G,] [D,F,]2 [D,F,] | G,2 G,G, | %6
 G,2 G,[G,B,] | [C,C]2 [D,B,][D,A,] | [G,,B,]3 G, | G,2 G,G, | G,2 G,[F,A,] | %11
 [E,A,]2 [E,A,][E,A,] | [E,G,] [D,F,]2 [D,F,] | G,2 G,G, | G,2 G,[G,B,] | [C,C]2 [D,B,][D,A,] | %16
 [G,,B,]3 || [B,,G,] | [D,F,]2 [D,F,][D,F,] | G,G, z G, | G,2 G,G, | G,2 z!pp! [B,,G,] | %22
 [D,F,]2 [D,F,][D,F,] | G,G, z [G,B,] | [C,C]2 [D,B,][D,A,] | [G,,B,]3 |] %26
V:4
 G, | G,2 G,G, | G,2 G, x | x4 | x4 | G,2 G,G, | G,2 G, x | x4 | x3 G, | G,2 G,G, | G,2 G, x | x4 | %12
 x4 | G,2 G,G, | G,2 G, x | x4 | x3 || x | x4 | G,G, G, x | G,2 G,G, | G,2 x2 | x4 | G,G, x2 | x4 | %25
 x3 |] %26

